X: 1
T: Shetland 7-Step Polka
M: 2/4
L: 1/8
R: barndance
K: Gmaj
D|GG GG|F/G/A/F/ GD|BB BB|A/B/c/A/ BG|
ee d>B|cc B>G|EA A>G|F/D/E/F/ G/A/B/d/|
ee d>B|cc B>G|EA A>G|F/D/E/F/ G:|
